X:505
T: Hua hama
N: C0162
O: China,Shandong, Chengwu
S: III, 406]
N: Saengerin: Huang Bai (?) hua hama
N: Auch dokumentiert unter C1396!!++Pruefen!!!
R: Kinderlied, Er ge; Imitation des Ochsenfroschs]
M: 2/4
L: 1/16
K: C
G2c2G2z2 | G2c2G2z2
c2ccB2c2 | d4G2z2
c2z2G4 | d2z2G2z2
c2z2G4 | d2z2G2z2
c2GAc4 | E2A2G4
c2GAc4 | E2A2G4
e3de2d2 | c2GAG4
c2z2c2z2 | G2z2G2z2
c2z2c2z2 | G2z2G2z2
d2z2z4 | e3dc2z2 | c2GAG4
e3dc2z2 | c2GAG4
d8 | e3dc2d2 | c4z4
c2z2G2z2 | d2z2G2z2
c2z2c2z2 | G2z2G2z2 | z4G4

